svg/icon/taas.svg

<svg height="32" viewBox="0 0 32 32" width="32" xmlns="http://www.w3.org/2000/svg" xmlns:xlink="http://www.w3.org/1999/xlink"><defs><linearGradient id="a" x1="50%" x2="50%" y1="0%" y2="100%"><stop offset="0" stop-color="#fff" stop-opacity=".5"/><stop offset="1" stop-opacity=".5"/></linearGradient><circle id="b" cx="16" cy="15" r="15"/><filter id="c" height="111.7%" width="111.7%" x="-5.8%" y="-4.2%"><feOffset dy=".5" in="SourceAlpha" result="shadowOffsetOuter1"/><feGaussianBlur in="shadowOffsetOuter1" result="shadowBlurOuter1" stdDeviation=".5"/><feComposite in="shadowBlurOuter1" in2="SourceAlpha" operator="out" result="shadowBlurOuter1"/><feColorMatrix in="shadowBlurOuter1" values="0 0 0 0 0   0 0 0 0 0   0 0 0 0 0  0 0 0 0.199473505 0"/></filter><path id="d" d="m4 12h1.29805014v1.2209607h-1.29805014zm1.29805014 4.7737991h3.77715877v1.2262009h-5.07520891v-3.5580786h3.81058496v1.2209607h-2.51253482zm17.62674096-2.3318777h5.0752089v3.5580786h-3.810585v-1.2262009h2.5125349v-1.110917h-3.7771588zm3.7984011-1.1620821h-3.7994429v-1.2209607h3.7994429zm-16.4112145 1.1620821h5.0752089v2.3842795h-1.2646239v1.1737991h-3.810585zm3.7771588 2.3318777v-1.110917h-2.4791086v1.110917zm-3.7771588-4.7737991h5.0752089v1.2209607h-5.0752089zm6.3342619 2.4419214h5.0752089v2.3842795h-1.264624v1.1737991h-3.8105849zm3.7715877 2.3318777v-1.110917h-2.4791086v1.110917zm-3.7715877-4.7737991h5.0752089v1.2209607h-5.0752089z"/><filter id="e" height="158.3%" width="114.6%" x="-7.3%" y="-20.8%"><feOffset dy=".5" in="SourceAlpha" result="shadowOffsetOuter1"/><feGaussianBlur in="shadowOffsetOuter1" result="shadowBlurOuter1" stdDeviation=".5"/><feColorMatrix in="shadowBlurOuter1" values="0 0 0 0 0   0 0 0 0 0   0 0 0 0 0  0 0 0 0.204257246 0"/></filter></defs><g fill="none" fill-rule="nonzero"><g><use fill="#000" filter="url(#c)" xlink:href="#b"/><use fill="#002342" fill-rule="evenodd" xlink:href="#b"/><use fill="url(#a)" fill-rule="evenodd" xlink:href="#b"/><circle cx="16" cy="15" r="14.5" stroke="#000" stroke-opacity=".097"/></g><g><use fill="#000" filter="url(#e)" xlink:href="#d"/><use fill="#fff" fill-rule="evenodd" xlink:href="#d"/></g></g></svg>

<svg xmlns="http://www.w3.org/2000/svg" xmlns:xlink="http://www.w3.org/1999/xlink" width="32" height="32" viewBox="0 0 32 32">
  <defs>
    <linearGradient id="taas-c" x1="50%" x2="50%" y1="0%" y2="100%">
      <stop offset="0%" stop-color="#FFF" stop-opacity=".5"/>
      <stop offset="100%" stop-opacity=".5"/>
    </linearGradient>
    <circle id="taas-b" cx="16" cy="15" r="15"/>
    <filter id="taas-a" width="111.7%" height="111.7%" x="-5.8%" y="-4.2%" filterUnits="objectBoundingBox">
      <feOffset dy=".5" in="SourceAlpha" result="shadowOffsetOuter1"/>
      <feGaussianBlur in="shadowOffsetOuter1" result="shadowBlurOuter1" stdDeviation=".5"/>
      <feComposite in="shadowBlurOuter1" in2="SourceAlpha" operator="out" result="shadowBlurOuter1"/>
      <feColorMatrix in="shadowBlurOuter1" values="0 0 0 0 0   0 0 0 0 0   0 0 0 0 0  0 0 0 0.199473505 0"/>
    </filter>
    <path id="taas-e" d="M4,12 L5.29805014,12 L5.29805014,13.2209607 L4,13.2209607 L4,12 Z M5.29805014,16.7737991 L9.07520891,16.7737991 L9.07520891,18 L4,18 L4,14.4419214 L7.81058496,14.4419214 L7.81058496,15.6628821 L5.29805014,15.6628821 L5.29805014,16.7737991 Z M22.9247911,14.4419214 L28,14.4419214 L28,18 L24.189415,18 L24.189415,16.7737991 L26.7019499,16.7737991 L26.7019499,15.6628821 L22.9247911,15.6628821 L22.9247911,14.4419214 Z M26.7231922,13.2798393 L22.9237493,13.2798393 L22.9237493,12.0588786 L26.7231922,12.0588786 L26.7231922,13.2798393 Z M10.3119777,14.4419214 L15.3871866,14.4419214 L15.3871866,16.8262009 L14.1225627,16.8262009 L14.1225627,18 L10.3119777,18 L10.3119777,14.4419214 Z M14.0891365,16.7737991 L14.0891365,15.6628821 L11.6100279,15.6628821 L11.6100279,16.7737991 L14.0891365,16.7737991 Z M10.3119777,12 L15.3871866,12 L15.3871866,13.2209607 L10.3119777,13.2209607 L10.3119777,12 Z M16.6462396,14.4419214 L21.7214485,14.4419214 L21.7214485,16.8262009 L20.4568245,16.8262009 L20.4568245,18 L16.6462396,18 L16.6462396,14.4419214 Z M20.4178273,16.7737991 L20.4178273,15.6628821 L17.9387187,15.6628821 L17.9387187,16.7737991 L20.4178273,16.7737991 Z M16.6462396,12 L21.7214485,12 L21.7214485,13.2209607 L16.6462396,13.2209607 L16.6462396,12 Z"/>
    <filter id="taas-d" width="114.6%" height="158.3%" x="-7.3%" y="-20.8%" filterUnits="objectBoundingBox">
      <feOffset dy=".5" in="SourceAlpha" result="shadowOffsetOuter1"/>
      <feGaussianBlur in="shadowOffsetOuter1" result="shadowBlurOuter1" stdDeviation=".5"/>
      <feColorMatrix in="shadowBlurOuter1" values="0 0 0 0 0   0 0 0 0 0   0 0 0 0 0  0 0 0 0.204257246 0"/>
    </filter>
  </defs>
  <g fill="none" fill-rule="evenodd">
    <g fill-rule="nonzero">
      <use fill="#000" filter="url(#taas-a)" xlink:href="#taas-b"/>
      <use fill="#002342" fill-rule="evenodd" xlink:href="#taas-b"/>
      <use fill="url(#taas-c)" fill-rule="evenodd" style="mix-blend-mode:soft-light" xlink:href="#taas-b"/>
      <circle cx="16" cy="15" r="14.5" stroke="#000" stroke-opacity=".097"/>
    </g>
    <g fill-rule="nonzero">
      <use fill="#000" filter="url(#taas-d)" xlink:href="#taas-e"/>
      <use fill="#FFF" fill-rule="evenodd" xlink:href="#taas-e"/>
    </g>
  </g>
</svg>
